svg/azure-resource-group.svg

<?xml version="1.0" encoding="UTF-8"?>
<svg xmlns="http://www.w3.org/2000/svg" xmlns:xlink="http://www.w3.org/1999/xlink" width="32" height="32" viewBox="0 0 32 32">
<path fill-rule="nonzero" fill="rgb(58.039216%, 58.039216%, 58.039216%)" fill-opacity="1" d="M 0.890625 26.808594 C 0.886719 26.910156 0.941406 27.007812 1.03125 27.058594 L 3.09375 28.214844 L 6.578125 30.222656 C 6.71875 30.304688 6.902344 30.257812 6.988281 30.117188 L 8.160156 28.125 C 8.226562 27.992188 8.179688 27.828125 8.054688 27.75 L 3.964844 25.441406 C 3.878906 25.386719 3.824219 25.292969 3.820312 25.191406 L 3.820312 6.84375 C 3.820312 6.742188 3.875 6.648438 3.964844 6.59375 L 8.054688 4.285156 C 8.179688 4.203125 8.226562 4.042969 8.160156 3.910156 L 6.988281 1.921875 C 6.953125 1.847656 6.890625 1.789062 6.8125 1.761719 C 6.734375 1.734375 6.652344 1.742188 6.578125 1.777344 L 3.164062 3.75 L 1.03125 4.941406 C 0.941406 4.992188 0.886719 5.089844 0.890625 5.191406 Z M 0.890625 26.808594 "/>
<path fill-rule="nonzero" fill="rgb(63.921569%, 63.921569%, 63.921569%)" fill-opacity="1" d="M 3.804688 6.703125 L 3.910156 6.59375 L 8 4.285156 C 8.070312 4.257812 8.125 4.199219 8.144531 4.125 C 8.164062 4.050781 8.148438 3.972656 8.105469 3.910156 L 6.933594 1.921875 C 6.90625 1.847656 6.847656 1.785156 6.773438 1.753906 C 6.699219 1.726562 6.613281 1.734375 6.542969 1.777344 L 3.109375 3.75 L 0.996094 4.941406 C 0.996094 4.941406 0.90625 4.941406 0.890625 5.050781 L 2.488281 5.957031 Z M 8 27.714844 L 3.910156 25.40625 C 3.855469 25.363281 3.8125 25.308594 3.785156 25.246094 L 0.90625 27.023438 L 0.996094 27.023438 L 3.039062 28.179688 L 6.59375 30.152344 C 6.660156 30.195312 6.742188 30.207031 6.816406 30.1875 C 6.890625 30.164062 6.953125 30.113281 6.988281 30.042969 L 8.160156 28.054688 C 8.1875 27.988281 8.1875 27.914062 8.15625 27.847656 C 8.125 27.785156 8.070312 27.734375 8 27.714844 "/>
<path fill-rule="nonzero" fill="rgb(58.039216%, 58.039216%, 58.039216%)" fill-opacity="1" d="M 31.109375 26.808594 C 31.113281 26.910156 31.058594 27.007812 30.96875 27.058594 L 28.90625 28.214844 L 25.421875 30.222656 C 25.277344 30.304688 25.097656 30.257812 25.011719 30.117188 L 23.839844 28.125 C 23.773438 27.992188 23.820312 27.828125 23.945312 27.75 L 28.035156 25.441406 C 28.121094 25.386719 28.175781 25.292969 28.179688 25.191406 L 28.179688 6.84375 C 28.179688 6.742188 28.125 6.644531 28.035156 6.59375 L 23.945312 4.285156 C 23.820312 4.203125 23.773438 4.042969 23.839844 3.910156 L 25.011719 1.921875 C 25.046875 1.847656 25.109375 1.789062 25.1875 1.761719 C 25.265625 1.734375 25.347656 1.738281 25.421875 1.777344 L 28.835938 3.714844 L 30.96875 4.90625 C 31.058594 4.957031 31.113281 5.054688 31.109375 5.15625 Z M 31.109375 26.808594 "/>
<path fill-rule="nonzero" fill="rgb(63.921569%, 63.921569%, 63.921569%)" fill-opacity="1" d="M 28.195312 6.703125 L 28.089844 6.59375 L 24 4.285156 C 23.929688 4.257812 23.875 4.199219 23.855469 4.125 C 23.835938 4.050781 23.851562 3.972656 23.894531 3.910156 L 25.066406 1.921875 C 25.09375 1.847656 25.152344 1.789062 25.226562 1.753906 C 25.300781 1.726562 25.386719 1.734375 25.457031 1.777344 L 28.890625 3.714844 L 31.003906 4.90625 L 31.109375 5.011719 L 29.511719 5.921875 Z M 24 27.714844 L 28.089844 25.40625 C 28.144531 25.363281 28.1875 25.308594 28.214844 25.246094 L 31.09375 27.023438 L 29.050781 28.179688 L 25.492188 30.152344 C 25.425781 30.195312 25.347656 30.207031 25.273438 30.1875 C 25.199219 30.164062 25.136719 30.109375 25.101562 30.042969 L 23.929688 28.054688 C 23.859375 27.941406 23.890625 27.792969 24 27.714844 "/>
<path fill-rule="nonzero" fill="rgb(19.607843%, 74.509804%, 86.666667%)" fill-opacity="1" d="M 25.441406 10.542969 L 25.441406 21.457031 L 15.980469 26.949219 L 15.980469 16.019531 Z M 25.441406 10.542969 "/>
<path fill-rule="nonzero" fill="rgb(61.176471%, 92.156863%, 100%)" fill-opacity="1" d="M 25.441406 10.542969 L 16 16.035156 L 6.542969 10.542969 L 16 5.050781 Z M 25.441406 10.542969 "/>
<path fill-rule="nonzero" fill="rgb(31.372549%, 90.196078%, 100%)" fill-opacity="1" d="M 15.980469 16.035156 L 15.980469 26.949219 L 6.542969 21.457031 L 6.542969 10.542969 Z M 15.980469 16.035156 "/>
<path fill-rule="nonzero" fill="rgb(61.176471%, 92.156863%, 100%)" fill-opacity="1" d="M 6.542969 21.457031 L 15.980469 16.019531 L 15.980469 26.949219 Z M 6.542969 21.457031 "/>
<path fill-rule="nonzero" fill="rgb(31.372549%, 90.196078%, 100%)" fill-opacity="1" d="M 25.441406 21.457031 L 15.980469 16.019531 L 15.980469 26.949219 Z M 25.441406 21.457031 "/>
</svg>

<svg role="img" viewBox="0 0 32 32" height="32" width="32" xmlns="http://www.w3.org/2000/svg"><path d="M.89 26.809a.28.28 0 0 0 .141.25l2.063 1.156 3.484 2.008c.14.082.324.035.41-.106l1.172-1.992a.291.291 0 0 0-.105-.375l-4.09-2.309a.312.312 0 0 1-.145-.25V6.844c0-.102.055-.196.145-.25l4.09-2.309a.293.293 0 0 0 .105-.375L6.988 1.922a.308.308 0 0 0-.176-.16.305.305 0 0 0-.234.015L3.164 3.75 1.031 4.941a.277.277 0 0 0-.14.25Zm0 0" fill="rgb(58.039216%, 58.039216%, 58.039216%)"/><path d="m3.805 6.703.105-.11L8 4.286a.237.237 0 0 0 .145-.16.262.262 0 0 0-.04-.215L6.934 1.922a.283.283 0 0 0-.16-.168.267.267 0 0 0-.231.023L3.109 3.75.996 4.941s-.09 0-.105.11l1.597.906ZM8 27.715l-4.09-2.309a.416.416 0 0 1-.125-.16L.906 27.023h.09L3.04 28.18l3.555 1.972a.28.28 0 0 0 .222.035.287.287 0 0 0 .172-.144l1.172-1.988a.255.255 0 0 0-.004-.207.252.252 0 0 0-.156-.133" fill="rgb(63.921569%, 63.921569%, 63.921569%)"/><path d="M31.11 26.809a.28.28 0 0 1-.141.25l-2.063 1.156-3.484 2.008a.303.303 0 0 1-.41-.106l-1.172-1.992a.291.291 0 0 1 .105-.375l4.09-2.309a.312.312 0 0 0 .145-.25V6.844c0-.102-.055-.2-.145-.25l-4.09-2.309a.293.293 0 0 1-.105-.375l1.172-1.988a.308.308 0 0 1 .175-.16.289.289 0 0 1 .235.015l3.414 1.938 2.133 1.191c.09.051.144.149.14.25Zm0 0" fill="rgb(58.039216%, 58.039216%, 58.039216%)"/><path d="m28.195 6.703-.105-.11L24 4.286a.237.237 0 0 1-.145-.16.262.262 0 0 1 .04-.215l1.171-1.988a.306.306 0 0 1 .16-.168.267.267 0 0 1 .231.023l3.434 1.938 2.113 1.191.105.106-1.597.91ZM24 27.715l4.09-2.309a.416.416 0 0 0 .125-.16l2.879 1.777-2.043 1.157-3.559 1.972a.272.272 0 0 1-.219.035.3.3 0 0 1-.171-.144l-1.172-1.988a.254.254 0 0 1 .07-.34" fill="rgb(63.921569%, 63.921569%, 63.921569%)"/><path d="M25.441 10.543v10.914l-9.46 5.492V16.02Zm0 0" fill="rgb(19.607843%, 74.509804%, 86.666667%)"/><path d="M25.441 10.543 16 16.035l-9.457-5.492L16 5.051Zm0 0" fill="rgb(61.176471%, 92.156863%, 100%)"/><path d="M15.98 16.035V26.95l-9.437-5.492V10.543Zm0 0" fill="rgb(31.372549%, 90.196078%, 100%)"/><path d="m6.543 21.457 9.437-5.437v10.93Zm0 0" fill="rgb(61.176471%, 92.156863%, 100%)"/><path d="m25.441 21.457-9.46-5.437v10.93Zm0 0" fill="rgb(31.372549%, 90.196078%, 100%)"/></svg>
